X: 74
T: Railroad Runs Through Georgia
B: canberra pickers and fiddlers
B: old time tunes update
B: tunes
M:C
L:1/8
R: Reel
Q: 1/4=100
K:A
V:1 
cB|A2 c2e3A|c2(e4e)(e|f)afe d2f2|e3f e2cB|
A2c2e3e|c2(e4 e)(e|f)afe defg|abaf e2c2|e3f e2cB||
A2 Ac BABA|c2(A2A2)EF|A2 AcBc B2|A3B A2EF|
A2 Ac BABA|c2e2c2e2|efec B2c2|1 A3B A2EF:|2 A3BA2||
% abcbook-tune_id 67a7d9ece15683d3fb76cb45
% abcbook-tune_composer_id 
% abcbook-link-0 https://www.youtube.com/watch?v=f41sgKy5y_s
% abcbook-link-title-0 Old-Time TOTW #293: Railroad Runs Through Georgia (Walter Baker) 2/4/24
% abcbook-link-start-at-0 28
% abcbook-boost 0
% abcbook-difficulty 0
% abcbook-tags old time tunes
% abcbook-tablature 
% abcbook-transpose 
% abcbook-tuning AEAE
% abcbook-lastupdated 1739219271172
% abcbook-src-url 
% abcbook-soundfonts 
% abcbook-repeats 1


